cssgg/compress-left.svg

<svg
  width="24"
  height="24"
  viewBox="0 0 24 24"
  fill="none"
  xmlns="http://www.w3.org/2000/svg"
>
  <path
    d="M7.97867 9.45703L4.40883 9.45423L4.40726 11.4542L11.4073 11.4597L11.4127 4.45972L9.41274 4.45815L9.40992 8.05978L3.09616 1.76935L1.68457 3.18618L7.97867 9.45703Z"
    fill="currentColor"
  />
  <path
    d="M19.5615 14.5521L19.5535 12.5521L12.5536 12.58L12.5814 19.5799L14.5814 19.572L14.5671 15.9706L20.9105 22.2307L22.3153 20.8071L15.9914 14.5663L19.5615 14.5521Z"
    fill="currentColor"
  />
</svg>

<svg viewBox="0 0 24 24" xmlns="http://www.w3.org/2000/svg"><g><path d="M7.97 9.45L4.4 9.44l-.01 1.99 7 0 0-7 -2-.01 -.01 3.6 -6.32-6.3 -1.42 1.41L7.93 9.4Z"/><path d="M19.56 14.55l-.01-2 -7 .02 .02 6.99 2-.01 -.02-3.61 6.34 6.26 1.4-1.43 -6.33-6.25 3.57-.02Z"/></g></svg>
